X:56
T:Dan Patsy's Slide* 
B:CRE 2.087 (gan ainm)
F:file ID: cre.2/056dan_p
Q:200
L:1/8
M:12/8
R:jig
K:G
B|d2B BAB g2e f2e|d2B BAB e3 efe|
d2B BAB g2e f2e|d2B BcB A3 A2:|
e|f2a f2e efa f2e|d2B BAB e3 e3|
f2a f2e efa f2e|d2B BcB A3 A2:|

%%%

